X:1
T:Home at Last (Williams)
T:Home at Last (Williams)
T:Marcus Lafayette Williams
T:Marcus Lafayette Williams, 1913
T:Public Domain Courtesy of the Cyber Hymnal™
T:Public Domain Courtesy of the Cyber Hymnal™
C:Marcus Lafayette Williams
Z:Public Domain
Z:Courtesy of the Cyber Hymnal™
%%score ( 1 2 ) ( 3 4 )
L:1/8
Q:1/4=95
M:4/4
K:Ab
V:1 treble 
V:2 treble 
V:3 bass 
V:4 bass 
V:1
 [CE][CF] | [CA][CB][CA][DF] [CE]2 [CE][DF] | [EA][EG][EA][EB] [Ac]2 [Ac][Ae] | %3
w: 1.~There’s a|ci- ty bright and fair, Peace and|glo- ry wait- ing there In the|
w: 2.~There we’ll|walk the gold- en streets While each|tongue God’s praise re- peats, And we’ll|
w: 3.~Ev- er|up- ward let us move, Waft- ed|on the wings of love, Watch- ing,|
 [Ae][Af][Ae][Ac] [AB]2 [Ac][Ac] | [GB]6 [CE][CF] | [CA][CB][CA][DF] [CE]2 [CE][DF] | %6
w: bless- èd hap- py land far on|high; Soon that|ci- ty we shall view With the|
w: dwell in per- fect bliss ev- er-|more; With our|loved ones we shall be Through- out|
w: wait- ing for the Lord till He|come; Then we|shall His face be- hold, And with|
 [EA][EB][Ec][Ec] [Ae]2 [Ae][Ae] | [Af][Ae][Ae][Ac] [GB]2 [Gc]>[GB] | [EA]6 || %9
w: faith- ful and the true, And with|them we’ll ev- er sing by and|by.|
w: all e- ter- ni- ty, For all|part- ing and all pain will be|o’er.|
w: rap- ture ne- ver told, Sing for-|ev- er of His love safe at|home.|
"^Refrain" [Ae]>[Ac] | e6 [Af]>[Ac] | e6 [Ac][Ae] | [Ae][Af][Ae][Ac] [AB]2 [Ac][Ac] | %13
w: ||||
w: Home at|last, home at|last, We shall|praise the Lord with an- gels so|
w: ||||
 B6 [Ae]>[Ac] | e6 [Af]>[Ac] | e6 [Ae][Ae] | [Af][Ae][Ae][Ac] [GB]2 [Gc]>[GB] | A6 |] %18
w: |||||
w: fair; Home at|last, home at|last, All the|won- drous joys of Hea- ven to|share.|
w: |||||
V:2
 x2 | x8 | x8 | x8 | x8 | x8 | x8 | x8 | x6 || x2 | (AAGG A2) x2 | (AAGG A2) x2 | x8 | %13
 (GGFF G2) x2 | (AAGG A2) x2 | (AAGG A2) x2 | x8 | (EFFE E2) |] %18
V:3
 [A,,A,][A,,A,] | [A,,A,][A,,A,][A,,A,][A,,A,] [A,,A,]2 A,A, | %2
w: ~ ~|~ ~ ~ ~ ~ ~ ~|
 [A,C][A,B,][A,C][A,D] [A,E]2 [A,E][A,C] | [A,C][A,C][A,C][A,E] [F,=D]2 [B,,D][B,,D] | %4
w: ~ ~ ~ ~ ~ ~ ~|~ ~ ~ ~ ~ ~ ~|
 [E,E]6 [A,,A,][A,,A,] | [A,,A,][A,,A,][A,,A,][A,,A,] [A,,A,]2 A,A, | %6
w: ~ ~ ~|~ ~ ~ ~ ~ ~ ~|
 [A,C][A,C][A,C][A,C] [A,C]2 [A,C][A,C] | [A,C][A,C][A,C][A,E] [E,D]2 [E,E]>[E,D] | [A,,C]6 || %9
w: ~ ~ ~ ~ ~ ~ ~|~ ~ ~ ~ ~ ~ ~|~|
 [A,C]>[A,E] | [A,C][A,C][E,B,][E,B,] [A,C]2 [A,C]>[A,E] | %11
w: ~ ~|~ all sor- rows o’er, ~ ~|
 [A,C][A,C][E,B,][E,B,] [A,C]2 [A,E][A,C] | [A,C][A,C][A,C][A,E] [F,=D]2 [B,,D][B,,D] | %13
w: ~ to roam no more ~ ~|~ ~ ~ ~ ~ ~ ~|
 [E,E][E,E][B,,=D][B,,D] [E,E]2 [A,C]>[A,E] | [A,C][A,C][E,B,][E,B,] [A,C]2 [A,C]>[A,E] | %15
w: ~ with an- gels fair ~ ~|~ from bur- dens free, ~ ~|
 [A,C][A,C][E,B,][E,B,] [A,C]2 [A,C][A,C] | [A,C][A,C][A,C][A,E] [E,D]2 [E,E]>[E,D] | CDDC C2 |] %18
w: ~ with Christ to be ~ ~|~ ~ ~ ~ ~ ~ ~|~ of Heav’n to share|
V:4
 x2 | x6 A,A, | x8 | x8 | x8 | x6 A,A, | x8 | x8 | x6 || x2 | x8 | x8 | x8 | x8 | x8 | x8 | x8 | %17
 A,,6 |] %18

